X:1
T:Mrs Troxler and the Pirates
C:T. S. Macdonald
M:C|
L:1/8
K:D
A | dA A/A/A AFAd | eB B/B/B BABc | dA A/A/A AFAd | cdec d2 d :|
d | gabg dgbg | dgbg f/f/f fd | gabg dgbg | fdef g/g/g gd | 
    gabg dgbg | GBeg !turn!f2 ef | gefd ecdB | AGFE D2 D |]

